X: 20366
T: John Clifford's
R: polka
M: 2/4
K: Dmajor
|:d>c da|B3 d|c/B/A/B/ c/d/e|A2 FA|B/c/d ef|
g3 e|1 fe fd|a2 AB/c/:|2 fe af|d2 AB/c/||
|:d/c/d/e/ f/e/d/B/|Af f2|Be eB|Ad dB/c/|
d/c/d/e/ f/e/d/B/|Af f2|Be ef|d2 d2:|

